public/logos/UO.svg

<?xml version="1.0" encoding="UTF-8"?>
<svg xmlns="http://www.w3.org/2000/svg" xmlns:xlink="http://www.w3.org/1999/xlink" width="176pt" height="43.5pt" viewBox="0 0 176 43.5" version="1.1">
<defs>
<clipPath id="clip1">
  <path d="M 0 0 L 25 0 L 25 43.5 L 0 43.5 Z M 0 0 "/>
</clipPath>
<clipPath id="clip2">
  <path d="M 28 5 L 54 5 L 54 43.5 L 28 43.5 Z M 28 5 "/>
</clipPath>
</defs>
<g id="surface1">
<g clip-path="url(#clip1)" clip-rule="nonzero">
<path style=" stroke:none;fill-rule:nonzero;fill:rgb(40.45105%,13.438416%,56.542969%);fill-opacity:1;" d="M 24.585938 42.867188 C 24.585938 43.332031 24.332031 43.5 23.996094 43.5 L 20.828125 43.5 C 19.476562 43.5 19.136719 43.160156 19.136719 41.640625 L 19.136719 33.867188 C 19.136719 31.839844 18.800781 31.503906 17.195312 31.503906 L 7.519531 31.503906 C 5.832031 31.503906 5.535156 31.796875 5.535156 33.824219 L 5.535156 41.683594 C 5.535156 43.160156 5.113281 43.5 3.761719 43.5 L 0.550781 43.5 C 0.125 43.5 0 43.203125 0 42.738281 L 0 15.617188 C 0 15.152344 0.296875 14.941406 0.550781 14.941406 L 3.71875 14.941406 C 5.113281 14.941406 5.535156 15.238281 5.535156 16.84375 L 5.535156 24.363281 C 5.535156 26.519531 5.914062 26.644531 7.519531 26.644531 L 17.234375 26.644531 C 18.757812 26.644531 19.136719 26.304688 19.136719 24.488281 L 19.136719 1.855469 C 19.136719 0.378906 19.476562 -0.00390625 20.828125 -0.00390625 L 23.996094 -0.00390625 C 24.503906 -0.00390625 24.585938 0.335938 24.585938 0.757812 L 24.585938 42.867188 "/>
</g>
<g clip-path="url(#clip2)" clip-rule="nonzero">
<path style=" stroke:none;fill-rule:nonzero;fill:rgb(40.45105%,13.438416%,56.542969%);fill-opacity:1;" d="M 34.253906 25.125 C 34.253906 26.601562 34.339844 26.726562 35.605469 26.726562 L 38.945312 26.726562 C 41.308594 26.726562 42.152344 26.222656 43.125 24.320312 L 46.421875 17.898438 C 47.476562 15.871094 48.449219 14.941406 50.898438 14.941406 L 52.800781 14.941406 C 53.09375 14.941406 53.644531 15.109375 53.265625 15.871094 L 47.773438 26.601562 C 47.179688 27.785156 46.84375 28.546875 46.84375 29.179688 C 46.84375 29.855469 47.179688 30.828125 47.855469 32.21875 L 53.222656 42.65625 C 53.476562 43.203125 53.054688 43.5 52.632812 43.5 L 50.644531 43.5 C 48.152344 43.5 47.179688 42.738281 46 40.417969 L 42.789062 34.039062 C 41.773438 31.96875 40.929688 31.460938 38.816406 31.460938 L 35.523438 31.460938 C 34.382812 31.460938 34.253906 31.671875 34.253906 33.152344 L 34.253906 42.019531 C 34.253906 43.078125 33.832031 43.5 32.734375 43.5 L 29.226562 43.5 C 28.804688 43.5 28.71875 43.289062 28.71875 42.738281 L 28.71875 5.984375 C 28.71875 5.5625 28.890625 5.351562 29.269531 5.351562 L 32.902344 5.351562 C 33.875 5.351562 34.253906 5.855469 34.253906 6.785156 L 34.253906 25.125 "/>
</g>
<path style=" stroke:none;fill-rule:nonzero;fill:rgb(92.939758%,10.978699%,14.118958%);fill-opacity:1;" d="M 60.542969 18.863281 C 59.796875 19.453125 59.546875 20.664062 59.546875 21.226562 C 59.546875 21.597656 59.703125 21.691406 60.449219 21.691406 L 65.238281 21.691406 C 65.984375 21.691406 66.511719 21.753906 66.636719 21.597656 C 66.761719 21.476562 66.851562 21.289062 66.851562 21.101562 C 66.851562 20.136719 66.574219 19.082031 65.984375 18.644531 C 65.515625 18.273438 64.769531 18.054688 63.371094 18.054688 C 61.972656 18.054688 61.132812 18.363281 60.542969 18.863281 Z M 57.777344 16.5 C 58.894531 15.566406 60.730469 14.976562 63.621094 14.976562 C 66.417969 14.976562 68.003906 15.472656 69.03125 16.3125 C 70.054688 17.214844 70.894531 19.082031 70.894531 23.683594 C 70.894531 24.242188 70.832031 24.582031 70.304688 24.582031 L 60.511719 24.582031 C 59.671875 24.582031 59.515625 24.707031 59.515625 25.113281 C 59.515625 26.136719 59.796875 26.882812 60.449219 27.445312 C 61.070312 28.066406 62.5 28.40625 64.644531 28.40625 C 66.730469 28.40625 68.75 28.097656 69.808594 27.941406 C 70.054688 27.878906 70.304688 28.097656 70.304688 28.375 C 70.273438 29.214844 69.589844 30.523438 68.8125 30.988281 C 68.222656 31.359375 66.292969 31.734375 63.558594 31.734375 C 60.605469 31.734375 58.523438 31.144531 57.402344 30.148438 C 56.128906 28.996094 55.320312 27.164062 55.320312 23.558594 C 55.320312 19.734375 56.40625 17.589844 57.777344 16.5 "/>
<path style=" stroke:none;fill-rule:nonzero;fill:rgb(92.939758%,10.978699%,14.118958%);fill-opacity:1;" d="M 82.582031 21.535156 C 83.703125 21.535156 84.042969 21.320312 84.480469 20.355469 L 86.066406 16.996094 C 86.625 15.785156 87.15625 15.257812 88.738281 15.257812 L 90.230469 15.257812 C 90.542969 15.257812 90.824219 15.441406 90.636719 15.785156 L 88.023438 21.320312 C 87.558594 22.28125 87.402344 22.65625 87.402344 23.246094 C 87.402344 23.742188 87.683594 24.523438 88.148438 25.578125 L 90.605469 30.894531 C 90.792969 31.269531 90.542969 31.484375 90.230469 31.484375 L 88.675781 31.484375 C 86.875 31.484375 86.40625 30.988281 85.910156 29.777344 L 84.324219 26.105469 C 83.890625 25.082031 83.640625 24.800781 82.523438 24.800781 L 81.558594 24.800781 C 80.59375 24.800781 80.1875 24.988281 79.816406 25.796875 L 77.980469 29.835938 C 77.484375 31.019531 76.863281 31.484375 75.308594 31.484375 L 73.722656 31.484375 C 73.378906 31.484375 73.195312 31.234375 73.378906 30.894531 L 76.148438 25.050781 C 76.582031 24.085938 76.769531 23.558594 76.769531 23.027344 C 76.769531 22.46875 76.550781 21.847656 76.148438 20.945312 L 73.753906 15.785156 C 73.566406 15.441406 73.753906 15.257812 74.15625 15.257812 L 75.742188 15.257812 C 77.515625 15.257812 77.917969 15.691406 78.480469 16.933594 L 79.847656 20.199219 C 80.316406 21.347656 80.59375 21.535156 81.621094 21.535156 L 82.582031 21.535156 "/>
<path style=" stroke:none;fill-rule:nonzero;fill:rgb(92.939758%,10.978699%,14.118958%);fill-opacity:1;" d="M 104.871094 18.894531 C 104.25 18.425781 103.410156 18.210938 101.671875 18.210938 C 100.273438 18.210938 99.277344 18.304688 98.746094 18.398438 C 98.28125 18.457031 98.125 18.644531 98.125 19.390625 L 98.125 27.226562 C 98.125 27.878906 98.28125 28.097656 98.8125 28.15625 C 99.558594 28.28125 100.335938 28.34375 101.359375 28.34375 C 103.257812 28.34375 104.222656 28.035156 104.75 27.445312 C 105.433594 26.820312 105.960938 25.332031 105.960938 23.152344 C 105.960938 20.574219 105.402344 19.328125 104.871094 18.894531 Z M 101.296875 14.976562 C 105.246094 14.976562 106.957031 15.320312 108.046875 16.3125 C 109.132812 17.277344 109.941406 19.421875 109.941406 22.90625 C 109.941406 26.976562 108.851562 28.996094 107.671875 30.054688 C 106.582031 31.019531 104.71875 31.609375 101.765625 31.609375 C 100.644531 31.609375 99.679688 31.578125 98.746094 31.546875 C 98.375 31.515625 98.125 31.546875 98.125 32.136719 L 98.125 37.578125 C 98.125 38.261719 97.941406 38.449219 97.378906 38.449219 L 94.675781 38.449219 C 94.335938 38.449219 94.179688 38.355469 94.179688 37.984375 L 94.179688 16.3125 C 94.179688 15.691406 94.363281 15.472656 94.894531 15.410156 C 96.386719 15.164062 99.183594 14.976562 101.296875 14.976562 "/>
<path style=" stroke:none;fill-rule:nonzero;fill:rgb(92.939758%,10.978699%,14.118958%);fill-opacity:1;" d="M 114.167969 16.035156 C 114.167969 15.660156 114.324219 15.503906 114.664062 15.472656 C 116.34375 15.195312 118.613281 15.039062 120.355469 15.039062 C 122.25 15.039062 123.714844 15.132812 124.363281 15.472656 C 125.015625 15.816406 125.421875 16.875 125.421875 18.210938 C 125.421875 18.457031 125.234375 18.644531 124.988281 18.644531 C 124.269531 18.582031 122.996094 18.488281 122.09375 18.488281 C 121.160156 18.488281 120.011719 18.519531 119.109375 18.613281 C 118.300781 18.738281 118.179688 18.832031 118.179688 19.890625 L 118.179688 30.988281 C 118.179688 31.328125 118.023438 31.484375 117.617188 31.484375 L 114.601562 31.484375 C 114.292969 31.484375 114.167969 31.359375 114.167969 30.988281 L 114.167969 16.035156 "/>
<path style=" stroke:none;fill-rule:nonzero;fill:rgb(92.939758%,10.978699%,14.118958%);fill-opacity:1;" d="M 132.476562 18.863281 C 131.730469 19.453125 131.484375 20.664062 131.484375 21.226562 C 131.484375 21.597656 131.636719 21.691406 132.382812 21.691406 L 137.171875 21.691406 C 137.917969 21.691406 138.445312 21.753906 138.570312 21.597656 C 138.695312 21.476562 138.789062 21.289062 138.789062 21.101562 C 138.789062 20.136719 138.507812 19.082031 137.917969 18.644531 C 137.453125 18.273438 136.707031 18.054688 135.308594 18.054688 C 133.90625 18.054688 133.070312 18.363281 132.476562 18.863281 Z M 129.710938 16.5 C 130.828125 15.566406 132.664062 14.976562 135.554688 14.976562 C 138.355469 14.976562 139.9375 15.472656 140.964844 16.3125 C 141.992188 17.214844 142.828125 19.082031 142.828125 23.683594 C 142.828125 24.242188 142.769531 24.582031 142.238281 24.582031 L 132.445312 24.582031 C 131.605469 24.582031 131.453125 24.707031 131.453125 25.113281 C 131.453125 26.136719 131.730469 26.882812 132.382812 27.445312 C 133.007812 28.066406 134.4375 28.40625 136.582031 28.40625 C 138.664062 28.40625 140.6875 28.097656 141.742188 27.941406 C 141.992188 27.878906 142.238281 28.097656 142.238281 28.375 C 142.210938 29.214844 141.523438 30.523438 140.746094 30.988281 C 140.15625 31.359375 138.230469 31.734375 135.492188 31.734375 C 132.539062 31.734375 130.457031 31.144531 129.339844 30.148438 C 128.0625 28.996094 127.253906 27.164062 127.253906 23.558594 C 127.253906 19.734375 128.34375 17.589844 129.710938 16.5 "/>
<path style=" stroke:none;fill-rule:nonzero;fill:rgb(92.939758%,10.978699%,14.118958%);fill-opacity:1;" d="M 157.96875 15.535156 C 158.652344 16.003906 159.058594 17.246094 159.089844 18.085938 C 159.089844 18.398438 158.777344 18.582031 158.5625 18.550781 C 157.410156 18.425781 155.730469 18.210938 154.054688 18.210938 C 152.3125 18.210938 151.128906 18.363281 150.726562 18.644531 C 150.382812 18.894531 150.105469 19.484375 150.105469 20.011719 C 150.105469 20.417969 150.199219 20.726562 150.414062 20.882812 C 151.066406 21.347656 157.378906 22.4375 158.4375 23.152344 C 158.996094 23.527344 159.460938 24.335938 159.460938 25.921875 C 159.460938 28.28125 158.777344 29.714844 157.90625 30.460938 C 157.007812 31.175781 155.296875 31.765625 152.0625 31.765625 C 149.265625 31.765625 147.929688 31.484375 147.304688 31.082031 C 146.683594 30.585938 146.125 29.214844 146.125 28.5625 C 146.125 28.1875 146.375 28.003906 146.652344 28.035156 C 148.019531 28.21875 149.792969 28.46875 151.722656 28.46875 C 153.308594 28.46875 154.394531 28.316406 154.828125 28.035156 C 155.234375 27.722656 155.359375 27.320312 155.359375 26.726562 C 155.359375 26.261719 155.234375 26.074219 155.015625 25.953125 C 154.144531 25.234375 147.988281 24.179688 146.964844 23.496094 C 146.433594 23.183594 146.125 21.972656 146.125 21.132812 C 146.125 18.457031 146.839844 17.027344 147.804688 16.21875 C 148.769531 15.441406 150.570312 15.007812 153.523438 15.007812 C 155.824219 15.007812 157.378906 15.164062 157.96875 15.535156 "/>
<path style=" stroke:none;fill-rule:nonzero;fill:rgb(92.939758%,10.978699%,14.118958%);fill-opacity:1;" d="M 174.507812 15.535156 C 175.191406 16.003906 175.597656 17.246094 175.628906 18.085938 C 175.628906 18.398438 175.316406 18.582031 175.097656 18.550781 C 173.949219 18.425781 172.269531 18.210938 170.589844 18.210938 C 168.851562 18.210938 167.667969 18.363281 167.265625 18.644531 C 166.921875 18.894531 166.640625 19.484375 166.640625 20.011719 C 166.640625 20.417969 166.734375 20.726562 166.953125 20.882812 C 167.605469 21.347656 173.917969 22.4375 174.976562 23.152344 C 175.535156 23.527344 176 24.335938 176 25.921875 C 176 28.28125 175.316406 29.714844 174.445312 30.460938 C 173.542969 31.175781 171.835938 31.765625 168.601562 31.765625 C 165.804688 31.765625 164.464844 31.484375 163.84375 31.082031 C 163.222656 30.585938 162.664062 29.214844 162.664062 28.5625 C 162.664062 28.1875 162.910156 28.003906 163.191406 28.035156 C 164.558594 28.21875 166.332031 28.46875 168.257812 28.46875 C 169.84375 28.46875 170.933594 28.316406 171.367188 28.035156 C 171.773438 27.722656 171.898438 27.320312 171.898438 26.726562 C 171.898438 26.261719 171.773438 26.074219 171.554688 25.953125 C 170.683594 25.234375 164.527344 24.179688 163.503906 23.496094 C 162.972656 23.183594 162.664062 21.972656 162.664062 21.132812 C 162.664062 18.457031 163.378906 17.027344 164.339844 16.21875 C 165.304688 15.441406 167.109375 15.007812 170.0625 15.007812 C 172.363281 15.007812 173.917969 15.164062 174.507812 15.535156 "/>
</g>
</svg>

<svg xmlns="http://www.w3.org/2000/svg" width="176pt" height="58" viewBox="0 0 176 43.5"><defs><clipPath id="a"><path d="M0 0h25v43.5H0Zm0 0"/></clipPath><clipPath id="b"><path d="M28 5h26v38.5H28Zm0 0"/></clipPath></defs><g clip-path="url(#a)"><path d="M24.586 42.867c0 .465-.254.633-.59.633h-3.168c-1.351 0-1.691-.34-1.691-1.86v-7.773c0-2.027-.336-2.363-1.942-2.363H7.52c-1.688 0-1.985.293-1.985 2.32v7.86c0 1.476-.422 1.816-1.773 1.816H.55c-.426 0-.551-.297-.551-.762v-27.12c0-.466.297-.677.55-.677H3.72c1.394 0 1.816.297 1.816 1.903v7.52c0 2.156.38 2.28 1.985 2.28h9.714c1.524 0 1.903-.34 1.903-2.156V1.855c0-1.476.34-1.859 1.691-1.859h3.168c.508 0 .59.34.59.762z" style="stroke:none;fill-rule:nonzero;fill:#672290;fill-opacity:1"/></g><g clip-path="url(#b)"><path d="M34.254 25.125c0 1.477.086 1.602 1.351 1.602h3.34c2.364 0 3.207-.504 4.18-2.407l3.297-6.422c1.055-2.027 2.027-2.957 4.476-2.957h1.903c.293 0 .844.168.465.93l-5.493 10.73c-.593 1.184-.93 1.946-.93 2.579 0 .675.337 1.648 1.012 3.039l5.368 10.437c.254.547-.168.844-.59.844h-1.988c-2.493 0-3.465-.762-4.645-3.082l-3.21-6.379c-1.017-2.07-1.86-2.578-3.974-2.578h-3.293c-1.14 0-1.27.21-1.27 1.691v8.868c0 1.058-.421 1.48-1.519 1.48h-3.507c-.422 0-.508-.21-.508-.762V5.984c0-.421.172-.632.55-.632h3.633c.973 0 1.352.503 1.352 1.433z" style="stroke:none;fill-rule:nonzero;fill:#672290;fill-opacity:1"/></g><path d="M60.543 18.863c-.746.59-.996 1.801-.996 2.364 0 .37.156.464.902.464h4.79c.745 0 1.273.063 1.398-.093a.72.72 0 0 0 .215-.496c0-.965-.278-2.02-.868-2.457-.468-.372-1.214-.59-2.613-.59-1.398 0-2.238.308-2.828.808M57.777 16.5c1.118-.934 2.953-1.523 5.844-1.523 2.797 0 4.383.496 5.41 1.335 1.024.903 1.864 2.77 1.864 7.372 0 .558-.063.898-.59.898h-9.793c-.84 0-.996.125-.996.531 0 1.024.28 1.77.933 2.332.621.621 2.051.961 4.196.961 2.085 0 4.105-.308 5.164-.465.246-.062.496.157.496.434-.032.84-.715 2.148-1.493 2.613-.59.371-2.519.746-5.253.746-2.954 0-5.036-.59-6.157-1.586-1.273-1.152-2.082-2.984-2.082-6.59 0-3.824 1.086-5.968 2.457-7.058M82.582 21.535c1.121 0 1.461-.215 1.898-1.18l1.586-3.359c.559-1.21 1.09-1.738 2.672-1.738h1.492c.313 0 .594.183.407.527l-2.614 5.535c-.464.961-.62 1.336-.62 1.926 0 .496.28 1.277.745 2.332l2.457 5.317c.188.375-.062.59-.375.59h-1.554c-1.801 0-2.27-.497-2.766-1.708l-1.586-3.672c-.433-1.023-.683-1.304-1.8-1.304h-.965c-.965 0-1.371.187-1.743.996l-1.836 4.039c-.496 1.184-1.117 1.648-2.671 1.648h-1.586c-.344 0-.528-.25-.344-.59l2.77-5.843c.433-.965.62-1.492.62-2.024 0-.558-.218-1.18-.62-2.082l-2.395-5.16c-.188-.344 0-.527.402-.527h1.586c1.774 0 2.176.433 2.738 1.676l1.368 3.265c.468 1.149.746 1.336 1.773 1.336zM104.871 18.895c-.621-.47-1.46-.684-3.2-.684-1.398 0-2.394.094-2.925.187-.465.059-.621.247-.621.993v7.836c0 .652.156.87.688.93.746.124 1.523.187 2.546.187 1.899 0 2.864-.309 3.391-.899.684-.625 1.21-2.113 1.21-4.293 0-2.578-.558-3.824-1.089-4.257m-3.574-3.918c3.95 0 5.66.343 6.75 1.335 1.086.965 1.894 3.11 1.894 6.594 0 4.07-1.09 6.09-2.27 7.149-1.089.965-2.952 1.554-5.905 1.554-1.121 0-2.086-.03-3.02-.062-.371-.031-.621 0-.621.59v5.441c0 .684-.184.871-.746.871h-2.703c-.34 0-.496-.094-.496-.465V16.313c0-.622.183-.84.715-.903 1.492-.246 4.289-.433 6.402-.433M114.168 16.035c0-.375.156-.531.496-.562 1.68-.278 3.95-.434 5.691-.434 1.895 0 3.36.094 4.008.434.653.343 1.059 1.402 1.059 2.738a.425.425 0 0 1-.434.434c-.718-.063-1.992-.157-2.894-.157-.934 0-2.082.032-2.985.125-.808.125-.93.219-.93 1.278v11.097c0 .34-.156.496-.562.496h-3.015c-.309 0-.434-.125-.434-.496zM132.477 18.863c-.747.59-.993 1.801-.993 2.364 0 .37.153.464.899.464h4.789c.746 0 1.273.063 1.398-.093a.72.72 0 0 0 .22-.496c0-.965-.282-2.02-.872-2.457-.465-.372-1.211-.59-2.61-.59-1.402 0-2.238.308-2.831.808M129.71 16.5c1.117-.934 2.953-1.523 5.844-1.523 2.8 0 4.382.496 5.41 1.335 1.027.903 1.863 2.77 1.863 7.372 0 .558-.058.898-.59.898h-9.793c-.84 0-.992.125-.992.531 0 1.024.277 1.77.93 2.332.625.621 2.054.961 4.199.961 2.082 0 4.106-.308 5.16-.465.25-.062.496.157.496.434-.027.84-.715 2.148-1.492 2.613-.59.371-2.516.746-5.254.746-2.953 0-5.035-.59-6.152-1.586-1.278-1.152-2.086-2.984-2.086-6.59 0-3.824 1.09-5.968 2.457-7.058M157.969 15.535c.683.469 1.09 1.711 1.12 2.55 0 .313-.312.497-.526.466-1.153-.125-2.833-.34-4.508-.34-1.743 0-2.926.152-3.328.434-.344.25-.622.84-.622 1.367 0 .406.094.715.31.87.651.466 6.964 1.555 8.023 2.27.558.375 1.023 1.184 1.023 2.77 0 2.36-.684 3.793-1.555 4.539-.898.715-2.61 1.305-5.844 1.305-2.796 0-4.132-.282-4.757-.684-.621-.496-1.18-1.867-1.18-2.52 0-.375.25-.558.527-.527 1.368.184 3.141.434 5.07.434 1.587 0 2.673-.153 3.106-.434.406-.312.531-.715.531-1.308 0-.465-.125-.653-.343-.774-.871-.719-7.028-1.773-8.051-2.457-.531-.312-.84-1.523-.84-2.363 0-2.676.715-4.106 1.68-4.914.965-.778 2.765-1.211 5.718-1.211 2.301 0 3.856.156 4.446.527M174.508 15.535c.683.469 1.09 1.711 1.12 2.55 0 .313-.312.497-.53.466-1.149-.125-2.828-.34-4.508-.34-1.738 0-2.922.152-3.324.434-.344.25-.625.84-.625 1.367 0 .406.093.715.312.87.652.466 6.965 1.555 8.024 2.27.558.375 1.023 1.184 1.023 2.77 0 2.36-.684 3.793-1.555 4.539-.902.715-2.61 1.305-5.843 1.305-2.797 0-4.137-.282-4.758-.684-.621-.496-1.18-1.867-1.18-2.52 0-.375.246-.558.527-.527 1.368.184 3.141.434 5.067.434 1.586 0 2.676-.153 3.11-.434.405-.312.53-.715.53-1.308 0-.465-.125-.653-.343-.774-.871-.719-7.028-1.773-8.051-2.457-.531-.312-.84-1.523-.84-2.363 0-2.676.715-4.106 1.676-4.914.965-.778 2.77-1.211 5.722-1.211 2.301 0 3.856.156 4.446.527" style="stroke:none;fill-rule:nonzero;fill:#ed1c24;fill-opacity:1"/></svg>
